X: 170
T: I Took Courage
C: Teton Sioux band 1911-1914
N: Derived from sioux165.krn
O: South Dakota, U.S.A.
N: Teton Sioux Music by Frances Densmore, 1918
Z: transcribed to **kern format by Craig Sapp
L: 1/8
M: 3/4
Q: 1/4=58
K: G clef=bass
%%linebreak <none>
D [I:setbarnb 1]| 
D2D2B,2 | 
D4B,3/ D/ | 
D2D2B,2 | 
B, A,- A, G,- G,3/ A,/ | 
A,2D2B,2 | 
B, A,- A, G,- G,3/ A,/ | 
A,2B, A,G,2 | 
G,4D,3/ G,/ | 
G,2A, A,G,2 | 
A,< G,-G,2D,3/ D,/ | 
D,6 ||  
[M:2/4]D,4 | 
z4 ||  
[M:3/4]D,< D,D2B,2 | 
D4B,3/ D/ | 
D2D2B,2 | 
(B, (A, A, A,) G,- G,3/ A,/ [I:setbarnb 17]| 
A,2D2B,2 | 
(B, A,- A, G,)- G, A, | 
A,2(B, A,)G,2 | 
G,2(G, D,- D,3/) G,/ | 
G,2A, A,G,2 | 
A,< G,-G,2D,3/ D,/ | 
D,6 | 
D,2z4 |]  



